src/wp-content/themes/aquaban/assets/images/time-2x.svg

<svg width="20" height="20" viewBox="0 0 20 20" fill="none" xmlns="http://www.w3.org/2000/svg">
<path d="M9.58992 0.00866099C11.3206 -0.0642142 13.0696 0.324027 14.6051 1.12693C16.8642 2.29294 18.6426 4.35475 19.4596 6.76304C20.0763 8.54912 20.1666 10.5112 19.7209 12.3476C19.3607 13.8417 18.6499 15.2507 17.6607 16.4273C16.6895 17.5882 15.4493 18.5224 14.0656 19.1365C12.4125 19.8742 10.5569 20.1499 8.76102 19.9223C6.74267 19.6743 4.80829 18.7896 3.30135 17.4237C2.11105 16.3519 1.18456 14.9894 0.627977 13.4876C0.0134387 11.8409 -0.155751 10.0309 0.145552 8.29896C0.484784 6.31897 1.43813 4.44893 2.84492 3.01444C4.60245 1.20364 7.06699 0.101992 9.58992 0.00866099ZM9.44843 3.82331C9.22555 3.99123 9.08917 4.26611 9.09173 4.54567C9.09002 6.2917 9.09215 8.03772 9.09088 9.78374C9.09002 9.96827 9.0815 10.1609 9.15608 10.3348C9.21958 10.5099 9.35468 10.6438 9.48551 10.7712C10.2961 11.5805 11.1058 12.3911 11.916 13.2012C12.0434 13.3278 12.1653 13.4684 12.3315 13.5451C12.6055 13.6806 12.9464 13.6627 13.2051 13.5004C13.4446 13.3542 13.6079 13.0917 13.6322 12.8121C13.6594 12.5462 13.5584 12.2726 13.3696 12.0842C12.5501 11.2621 11.7276 10.4439 10.9089 9.62137C10.9106 8.01428 10.9089 6.40761 10.9098 4.80052C10.9089 4.65776 10.9166 4.51414 10.8923 4.37308C10.8373 4.0739 10.6196 3.81138 10.3366 3.701C10.0464 3.58253 9.69561 3.63026 9.44843 3.82331Z" fill="#00AFEA"/>
</svg>

<svg width="20" height="20" fill="none" xmlns="http://www.w3.org/2000/svg"><path d="M9.59.009a9.977 9.977 0 015.015 1.118 10.047 10.047 0 014.855 5.636 9.995 9.995 0 01-10.7 13.16 10.006 10.006 0 01-8.133-6.435 10.013 10.013 0 01-.482-5.189 10.015 10.015 0 012.699-5.285A10.02 10.02 0 019.59.01zm-.142 3.814a.907.907 0 00-.356.723c-.002 1.746 0 3.492-.001 5.238-.001.184-.01.377.065.55.064.176.199.31.33.437l2.43 2.43c.127.127.25.267.415.344a.911.911 0 001.301-.733.913.913 0 00-.262-.728c-.82-.822-1.642-1.64-2.461-2.463.002-1.607 0-3.213 0-4.82 0-.143.008-.287-.017-.428a.911.911 0 00-1.444-.55z" fill="#00AFEA"/></svg>
